svgs/sharp-duotone-thin/flower.svg

<svg xmlns="http://www.w3.org/2000/svg" viewBox="0 0 448 512"><!--! Font Awesome Pro 7.1.0 by @fontawesome - https://fontawesome.com License - https://fontawesome.com/license (Commercial License) Copyright 2025 Fonticons, Inc. --><path opacity=".4" fill="currentColor" d="M16 168c0 29.6 10.7 56.7 28.5 77.6l8.8 10.4-8.8 10.4c-17.8 20.9-28.5 48-28.5 77.6 0 66.3 53.7 120 120 120 29.6 0 56.7-10.7 77.6-28.5l10.4-8.8 10.4 8.8c20.9 17.8 48 28.5 77.6 28.5 66.3 0 120-53.7 120-120 0-29.6-10.7-56.7-28.5-77.6l-8.8-10.4 8.8-10.4c17.8-20.9 28.5-48 28.5-77.6 0-66.3-53.7-120-120-120-29.6 0-56.7 10.7-77.6 28.5l-10.4 8.8-10.4-8.8C192.7 58.7 165.6 48 136 48 69.7 48 16 101.7 16 168zm112 88l96-96 11.3 11.3 73.4 73.4 11.3 11.3-96 96-11.3-11.3-73.4-73.4-11.3-11.3z"/><path fill="currentColor" d="M213.6 76.5c-20.9-17.8-48-28.5-77.6-28.5-66.3 0-120 53.7-120 120 0 29.6 10.7 56.7 28.5 77.6l8.8 10.4-8.8 10.4c-17.8 20.9-28.5 48-28.5 77.6 0 66.3 53.7 120 120 120 29.6 0 56.7-10.7 77.6-28.5l10.4-8.8 10.4 8.8c20.9 17.8 48 28.5 77.6 28.5 66.3 0 120-53.7 120-120 0-29.6-10.7-56.7-28.5-77.6l-8.8-10.4 8.8-10.4c17.8-20.9 28.5-48 28.5-77.6 0-66.3-53.7-120-120-120-29.6 0-56.7 10.7-77.6 28.5l-10.4 8.8-10.4-8.8zM448 168c0 33.6-12.2 64.3-32.3 88 20.1 23.7 32.3 54.4 32.3 88 0 75.1-60.9 136-136 136-33.6 0-64.3-12.2-88-32.3-23.7 20.1-54.4 32.3-88 32.3-75.1 0-136-60.9-136-136 0-33.6 12.2-64.3 32.3-88-20.1-23.7-32.3-54.4-32.3-88 0-75.1 60.9-136 136-136 33.6 0 64.3 12.2 88 32.3 23.7-20.1 54.4-32.3 88-32.3 75.1 0 136 60.9 136 136zM224 352l-11.3-11.3-73.4-73.4-11.3-11.3 96-96 11.3 11.3 73.4 73.4 11.3 11.3-96 96zm0-169.4L150.6 256 224 329.4 297.4 256 224 182.6z"/></svg>

<svg xmlns="http://www.w3.org/2000/svg" viewBox="0 0 448 512"><!--! Font Awesome Pro 6.7.2 by @fontawesome - https://fontawesome.com License - https://fontawesome.com/license (Commercial License) Copyright 2024 Fonticons, Inc. --><defs><style>.fa-secondary{opacity:.4}</style></defs><path class="fa-secondary" d="M16 168c0 29.6 10.7 56.7 28.5 77.6L53.3 256l-8.8 10.4C26.7 287.3 16 314.4 16 344c0 66.3 53.7 120 120 120c29.6 0 56.7-10.7 77.6-28.5l10.4-8.8 10.4 8.8c20.9 17.8 48 28.5 77.6 28.5c66.3 0 120-53.7 120-120c0-29.6-10.7-56.7-28.5-77.6L394.7 256l8.8-10.4c17.8-20.9 28.5-48 28.5-77.6c0-66.3-53.7-120-120-120c-29.6 0-56.7 10.7-77.6 28.5L224 85.3l-10.4-8.8C192.7 58.7 165.6 48 136 48C69.7 48 16 101.7 16 168zm112 88l11.3-11.3 73.4-73.4L224 160l11.3 11.3 73.4 73.4L320 256l-11.3 11.3-73.4 73.4L224 352l-11.3-11.3-73.4-73.4L128 256z"/><path class="fa-primary" d="M213.6 76.5C192.7 58.7 165.6 48 136 48C69.7 48 16 101.7 16 168c0 29.6 10.7 56.7 28.5 77.6L53.3 256l-8.8 10.4C26.7 287.3 16 314.4 16 344c0 66.3 53.7 120 120 120c29.6 0 56.7-10.7 77.6-28.5l10.4-8.8 10.4 8.8c20.9 17.8 48 28.5 77.6 28.5c66.3 0 120-53.7 120-120c0-29.6-10.7-56.7-28.5-77.6L394.7 256l8.8-10.4c17.8-20.9 28.5-48 28.5-77.6c0-66.3-53.7-120-120-120c-29.6 0-56.7 10.7-77.6 28.5L224 85.3l-10.4-8.8zM448 168c0 33.6-12.2 64.3-32.3 88c20.1 23.7 32.3 54.4 32.3 88c0 75.1-60.9 136-136 136c-33.6 0-64.3-12.2-88-32.3c-23.7 20.1-54.4 32.3-88 32.3C60.9 480 0 419.1 0 344c0-33.6 12.2-64.3 32.3-88C12.2 232.3 0 201.6 0 168C0 92.9 60.9 32 136 32c33.6 0 64.3 12.2 88 32.3C247.7 44.2 278.4 32 312 32c75.1 0 136 60.9 136 136zM224 352l-11.3-11.3-73.4-73.4L128 256l11.3-11.3 73.4-73.4L224 160l11.3 11.3 73.4 73.4L320 256l-11.3 11.3-73.4 73.4L224 352zm0-169.4L150.6 256 224 329.4 297.4 256 224 182.6z"/></svg>
